X: 24157
T: Loon And His Quine, The
R: reel
M: 4/4
K: Amajor
|:BcBA GAE2-|EcBA GAA/B/c|d3f ecA2-|AB2A BcBA|
BcBA GAE2-|EcBA GAA/B/c|d3f ecAB-|1 BABc AABA:|2 BABc AceA||
|:f2fe fac2-|cBBA cdeA|f2fe fag2|-geg/a/b agec|
f2fe fac2-|cBBA BcAG|[M:3/4]FGA GAB|1 Ac eA ce:|2 A6||

